src/img/aspect-ratio.svg

<svg width="16" height="16" viewBox="0 0 16 16" fill="none" xmlns="http://www.w3.org/2000/svg">
<path d="M0 3.5C0 2.67157 0.671573 2 1.5 2H14.5C15.3284 2 16 2.67157 16 3.5V12.5C16 13.3284 15.3284 14 14.5 14H1.5C0.671572 14 0 13.3284 0 12.5V3.5ZM1.5 3C1.22386 3 1 3.22386 1 3.5V12.5C1 12.7761 1.22386 13 1.5 13H14.5C14.7761 13 15 12.7761 15 12.5V3.5C15 3.22386 14.7761 3 14.5 3H1.5Z" fill="black"/>
<path d="M2 4.5C2 4.22386 2.22386 4 2.5 4H5.5C5.77614 4 6 4.22386 6 4.5C6 4.77614 5.77614 5 5.5 5H3V7.5C3 7.77614 2.77614 8 2.5 8C2.22386 8 2 7.77614 2 7.5V4.5Z" fill="black"/>
<path d="M14 11.5C14 11.7761 13.7761 12 13.5 12H10.5C10.2239 12 10 11.7761 10 11.5C10 11.2239 10.2239 11 10.5 11H13V8.5C13 8.22386 13.2239 8 13.5 8C13.7761 8 14 8.22386 14 8.5V11.5Z" fill="black"/>
</svg>

<svg width="16" height="16" viewBox="0 0 16 16" fill="none" xmlns="http://www.w3.org/2000/svg"><path d="M0 3.5c0-.83.67-1.5 1.5-1.5h13c.83 0 1.5.67 1.5 1.5v9c0 .83-.67 1.5-1.5 1.5h-13a1.5 1.5 0 0 1-1.5-1.5v-9Zm1.5-.5a.5.5 0 0 0-.5.5v9c0 .28.22.5.5.5h13a.5.5 0 0 0 .5-.5v-9a.5.5 0 0 0-.5-.5h-13Z" fill="#000"/><path d="M2 4.5c0-.28.22-.5.5-.5h3a.5.5 0 0 1 0 1h-2.5v2.5a.5.5 0 0 1-1 0v-3Zm12 7a.5.5 0 0 1-.5.5h-3a.5.5 0 0 1 0-1h2.5v-2.5a.5.5 0 0 1 1 0v3Z" fill="#000"/></svg>
